X: 6009
T: Cantabrian
R: jig
M: 6/8
K: Amixolydian
|:efg ~a3|~g3 a2e|e3 d2d|dcd f3|
e3 d2d|dcd f3|e3 cdc|1 BcB A3:|2 BcB A2e||
|:f3 e2d|cBc e2c|ABc dcB|ABc e2e|
f3 e2d|cBc e2c|ABc dcB|1 ABc A2e:|2 ABc A3||
|:ABc dcB|ABc d2A|ABc dcB|ABc e2e|
f3 d2d|dcd f3|e3 cdc|BcB A3:|

